**kern	**text	**kern	**text	**kern	**text	**kern	**text	**kern	**text
*staff5	*staff5	*staff4	*staff4	*staff3	*staff3	*staff2	*staff2	*staff1	*staff1
*I"Basso	*	*I"Tenore	*	*I"Alto	*	*I"Soprano II	*	*I"Soprano I	*
=1-	=1-	=1-	=1-	=1-	=1-	=1-	=1-	=1-	=1-
*clefF4	*	*clefGv2	*	*clefGv2	*	*clefG2	*	*clefG2	*
*k[]	*	*k[]	*	*k[]	*	*k[]	*	*k[]	*
*met(c|)	*	*met(c|)	*	*met(c|)	*	*met(c|)	*	*met(c|)	*
*M2/2	*	*M2/2	*	*M2/2	*	*M2/2	*	*M2/2	*
1r	.	1r	.	1r	.	1r	.	[1g	U-
=2	=2	=2	=2	=2	=2	=2	=2	=2	=2
1r	.	1r	.	1r	.	1r	.	2g/]	-na
.	.	.	.	.	.	.	.	2g/	.
=3	=3	=3	=3	=3	=3	=3	=3	=3	=3
1r	.	1r	.	[1d	U-	1r	.	[1f	ho-
=4	=4	=4	=4	=4	=4	=4	=4	=4	=4
1r	.	1r	.	2d\]	.	1r	.	1f]	.
.	.	.	.	2d\	-na	.	.	.	.
=5	=5	=5	=5	=5	=5	=5	=5	=5	=5
1r	.	1r	.	[1c	ho-	1r	.	2e/	-ra
.	.	.	.	.	.	.	.	2e/	non
=6	=6	=6	=6	=6	=6	=6	=6	=6	=6
1r	.	1r	.	1c]	.	1r	.	2e/	po-
.	.	.	.	.	.	.	.	2e/	-tu-
=7	=7	=7	=7	=7	=7	=7	=7	=7	=7
[1G	U-	1r	.	2B\	-ra	1r	.	1d	-i-
.	.	.	.	2B\	non	.	.	.	.
=8	=8	=8	=8	=8	=8	=8	=8	=8	=8
2G\]	.	1d	U-	2B\	po-	1r	.	2d/	-stis
2G\	-na	.	.	2B\	-tu-	.	.	2g/	vi-
=9	=9	=9	=9	=9	=9	=9	=9	=9	=9
1F	ho-	2d\	-na	1A	-i-	1r	.	2a/	-gi-
.	.	[2c\	ho-	.	.	.	.	[2a/	-la-
=10	=10	=10	=10	=10	=10	=10	=10	=10	=10
2E\	-ra	2c\]	.	2e\	-stis	1r	.	2a/]	.
2E\	non	2B\	-ra	[2e\	vi-	.	.	[2g/	-re
=11	=11	=11	=11	=11	=11	=11	=11	=11	=11
!!linebreak:original
2E\	po-	2B\	non	2e\]	.	1r	.	2g/]	.
2E\	-tu-	2B\	po-	2B\	-gi-	.	.	[2g/	me-
=12	=12	=12	=12	=12	=12	=12	=12	=12	=12
1D	-i-	2B\	-tu-	2d\	-la-	1r	.	2g/]	.
.	.	[2A/	-i-	2d\	-re	.	.	4f#/	.
.	.	.	.	.	.	.	.	4e/	.
=13	=13	=13	=13	=13	=13	=13	=13	=13	=13
1D	-stis	2A/]	.	[1d	me-	1r	.	1f#i	-cum,
.	.	2A/	-stis	.	.	.	.	.	.
=14	=14	=14	=14	=14	=14	=14	=14	=14	=14
1G	vi-	1B	vi-	1d]	.	1r	.	1g	vi-
=15	=15	=15	=15	=15	=15	=15	=15	=15	=15
2A\	-gi-	2c\	-gi-	2c\	-cum,	1r	.	2e/	-gi-
[2A\	-la-	[2c\	-la-	2e\	vi-	.	.	[2a/	-la-
=16	=16	=16	=16	=16	=16	=16	=16	=16	=16
2A\]	.	2c\]	.	2f#\	-gi-	1r	.	2a/]	.
2G\	-re	2B\	-re	[2g\	-la-	.	.	2d/	-re
=17	=17	=17	=17	=17	=17	=17	=17	=17	=17
[1G	me-	[1B	me-	2g\]	.	1r	.	2.e/	me-
.	.	.	.	2G/	-re	.	.	.	.
.	.	.	.	.	.	.	.	4d/	.
=18	=18	=18	=18	=18	=18	=18	=18	=18	=18
1G]	.	2B\]	.	2.B\	me-	1r	.	4e/	.
.	.	.	.	.	.	.	.	4f#i/	.
.	.	4A/	.	.	.	.	.	[2g/	.
.	.	4G/	.	4c\	.	.	.	.	.
=19	=19	=19	=19	=19	=19	=19	=19	=19	=19
[1D	.	[1A	.	[1d	.	1r	.	2g/]	.
.	.	.	.	.	.	.	.	4f#/	.
.	.	.	.	.	.	.	.	4e/	.
=20	=20	=20	=20	=20	=20	=20	=20	=20	=20
1D]	.	1A]	.	1d]	.	1r	.	1f#	.
=21	=21	=21	=21	=21	=21	=21	=21	=21	=21
1GG	-cum,	1B	-cum,	1d	-cum,	1r	.	1g	-cum,
=22	=22	=22	=22	=22	=22	=22	=22	=22	=22
!!pagebreak:original
2r	.	2r	.	2r	.	1r	.	2r	.
[2D\	qui	[2A/	qui	[2d\	qui	.	.	[2f#/	qui
=23	=23	=23	=23	=23	=23	=23	=23	=23	=23
2D\]	.	2A/]	.	2d\]	.	1r	.	2f#/]	.
2C/	ex-	2c\	ex-	2e\	ex-	.	.	2g/	ex-
=24	=24	=24	=24	=24	=24	=24	=24	=24	=24
2F\	-hor-	2c\	-hor-	2f\	-hor-	1r	.	2a/	-hor-
2C/	-ta-	2c\	-ta-	2e\	-ta-	.	.	2g/	-ta-
=25	=25	=25	=25	=25	=25	=25	=25	=25	=25
[1D	-ba-	[1A	-ba-	[1d	-ba-	1r	.	[1f	-ba-
=26	=26	=26	=26	=26	=26	=26	=26	=26	=26
2D\]	.	2A/]	.	2d\]	.	1r	.	2f/]	.
2D\	-mi-	2A/	-mi-	2d\	-mi-	.	.	2f/	-mi-
=27	=27	=27	=27	=27	=27	=27	=27	=27	=27
1AA	-ni	1A	-ni	1c	-ni	1r	.	1e	-ni
=28	=28	=28	=28	=28	=28	=28	=28	=28	=28
[1BB-	mo-	[1F	mo-	[1B-	mo-	1r	.	[1d	mo-
=29	=29	=29	=29	=29	=29	=29	=29	=29	=29
1BB-]	.	1F]	.	1B-]	.	1r	.	1d]	.
=30	=30	=30	=30	=30	=30	=30	=30	=30	=30
1FF	-ri	1F	-ri	1A	-ri	1r	.	1c	-ri
=31	=31	=31	=31	=31	=31	=31	=31	=31	=31
[1AA	pro	[1F	pro	[1c	pro	1r	.	1r	.
=32	=32	=32	=32	=32	=32	=32	=32	=32	=32
1AA_	.	1F]	.	1c_	.	1r	.	1f	mo-
=33	=33	=33	=33	=33	=33	=33	=33	=33	=33
!!linebreak:original
1AA_	.	[1A	.	1c_	.	1r	.	[1e	-ri
=34	=34	=34	=34	=34	=34	=34	=34	=34	=34
1AA]	.	1A]	.	1c]	.	1r	.	2e/]	.
.	.	.	.	.	.	.	.	2f#/	pro
=35	=35	=35	=35	=35	=35	=35	=35	=35	=35
[1GG	me?	[1D	me?	[1B	me?	1r	.	[1g	me?
=36	=36	=36	=36	=36	=36	=36	=36	=36	=36
1GG]	.	1D]	.	1B]	.	1r	.	1g]	.
=37||	=37||	=37||	=37||	=37||	=37||	=37||	=37||	=37||	=37||
1GG	Vel	1G	Vel	1B	Vel	1r	.	1d	Vel
=38	=38	=38	=38	=38	=38	=38	=38	=38	=38
1C	Ju-	1G	Ju-	1c	Ju-	1r	.	1e	Ju-
=39	=39	=39	=39	=39	=39	=39	=39	=39	=39
2C/	-dam	2G/	-dam	2c\	-dam	1r	.	2e/	-dam
[2F\	non	[2A/	non	[2c\	non	.	.	[2f/	non
=40	=40	=40	=40	=40	=40	=40	=40	=40	=40
2F\]	.	2A/]	.	2c\]	.	1r	.	2f/]	.
2D\	vi-	2A/	vi-	2d\	vi-	.	.	2f/	vi-
=41	=41	=41	=41	=41	=41	=41	=41	=41	=41
1F	-de-	1A	-de-	1c	-de-	1r	.	1f	-de-
=42	=42	=42	=42	=42	=42	=42	=42	=42	=42
1C	-tis,	1G	-tis,	1c	-tis,	1r	.	1e	-tis,
=43	=43	=43	=43	=43	=43	=43	=43	=43	=43
2r	.	2r	.	2r	.	1r	.	2r	.
[2AA/	quo-	[2A/	quo-	[2c\	quo-	.	.	[2e/	quo-
=44	=44	=44	=44	=44	=44	=44	=44	=44	=44
2AA/]	.	2A/]	.	2c\]	.	1r	.	2e/]	.
2AA/	-mo-	2A/	-mo-	2c\	-mo-	.	.	2e/	-mo-
=45	=45	=45	=45	=45	=45	=45	=45	=45	=45
!!linebreak:original
2AA/	-do	2A/	-do	2c\	-do	1r	.	2e/	-do
2D\	non	2A/	non	2d\	non	.	.	2f#/	non
=46	=46	=46	=46	=46	=46	=46	=46	=46	=46
1C	dor-	1c	dor-	1e	dor-	1r	.	1g	dor-
=47	=47	=47	=47	=47	=47	=47	=47	=47	=47
[1GG	-mit,	[1B	-mit,	[1d	-mit,	1r	.	[1g	-mit,
=48	=48	=48	=48	=48	=48	=48	=48	=48	=48
1GG]	.	1B]	.	1d]	.	1r	.	1g]	.
=49	=49	=49	=49	=49	=49	=49	=49	=49	=49
1D	sed	1A	sed	1d	sed	1r	.	1f#	sed
=50	=50	=50	=50	=50	=50	=50	=50	=50	=50
2G\	fe-	2B\	fe-	2d\	fe-	1r	.	2g/	fe-
[2F\	-sti-	[2c\	-sti-	[2f\	-sti-	.	.	[2a/	-sti-
=51	=51	=51	=51	=51	=51	=51	=51	=51	=51
2F\]	.	2c\]	.	2f\]	.	1r	.	2a/]	.
2C/	-nat	2c\	-nat	2e\	-nat	.	.	2g/	-nat
=52	=52	=52	=52	=52	=52	=52	=52	=52	=52
2.F\	tra-	2.c\	tra-	2.f\	tra-	1r	.	2.a/	tra-
4F\	-de-	4c\	-de-	4f\	-de-	.	.	4a/	-de-
=53	=53	=53	=53	=53	=53	=53	=53	=53	=53
2F\	-re	2c\	-re	2f\	-re	1r	.	2g/	-re
[2C/	me	[2c\	me	[2e\	me	.	.	[2g/	me
=54	=54	=54	=54	=54	=54	=54	=54	=54	=54
2C/]	.	2c\]	.	2e\]	.	1r	.	2g/]	.
2E\	Ju-	2G/	Ju-	2c\	Ju-	.	.	2g/	Ju-
=55	=55	=55	=55	=55	=55	=55	=55	=55	=55
[1D	-dae-	[1A	-dae-	[1d	-dae-	1r	.	2f#/	-dae-
.	.	.	.	.	.	.	.	[2g/	.
=56	=56	=56	=56	=56	=56	=56	=56	=56	=56
1D]	.	1A]	.	1d]	.	1r	.	2g/]	.
.	.	.	.	.	.	.	.	2f#/	.
=57	=57	=57	=57	=57	=57	=57	=57	=57	=57
[1GG	-is?	[1B	-is?	[1d	-is?	1r	.	[1g	-is?
=58	=58	=58	=58	=58	=58	=58	=58	=58	=58
1GG]	.	1B]	.	1d]	.	1r	.	1g]	.
!!pagebreak:original
=59||	=59||	=59||	=59||	=59||	=59||	=59||	=59||	=59||	=59||
!!pagebreak:original
1r	.	1r	.	[1c	Quid	[1g	Quid	[1e	Quid
=60	=60	=60	=60	=60	=60	=60	=60	=60	=60
1r	.	1r	.	2c\]	.	2g/]	.	2e/]	.
.	.	.	.	2B\	dor-	2g/	dor-	2d/	dor-
=61	=61	=61	=61	=61	=61	=61	=61	=61	=61
1r	.	1r	.	1c	-mi-	1g	-mi-	1e	-mi-
=62	=62	=62	=62	=62	=62	=62	=62	=62	=62
1r	.	1r	.	1F	-tis?	1a	-tis?	1f	-tis?
=63	=63	=63	=63	=63	=63	=63	=63	=63	=63
1r	.	1r	.	2r	.	2r	.	2r	.
.	.	.	.	[2c\	sur-	[2g/	sur-	[2e/	sur-
=64	=64	=64	=64	=64	=64	=64	=64	=64	=64
1r	.	1r	.	2c\]	.	2g/]	.	2e/]	.
.	.	.	.	2A/	-gi-	2cc\	-gi-	2a/	-gi-
=65	=65	=65	=65	=65	=65	=65	=65	=65	=65
1r	.	1r	.	2e\	-te,	2b\	-te,	2g/	-te,
.	.	.	.	[2c\	et	2e/	et	[2g/	et
=66	=66	=66	=66	=66	=66	=66	=66	=66	=66
1r	.	1r	.	2c\]	.	2e/	o-	2g/]	.
.	.	.	.	2e\	o-	[2g/	-ra-	2g/	o-
=67	=67	=67	=67	=67	=67	=67	=67	=67	=67
1r	.	1r	.	[1d	-ra-	2g/]	.	[1a	-ra-
.	.	.	.	.	.	4f#/	.	.	.
.	.	.	.	.	.	4e/	.	.	.
=68	=68	=68	=68	=68	=68	=68	=68	=68	=68
1r	.	1r	.	1d]	.	1f#	.	1a]	.
=69	=69	=69	=69	=69	=69	=69	=69	=69	=69
1r	.	1r	.	1G	-te,	1g	-te,	1b	-te,
=70	=70	=70	=70	=70	=70	=70	=70	=70	=70
!!linebreak:original
1r	.	1r	.	2r	.	2r	.	2r	.
.	.	.	.	[2c\	ne	[2g/	ne	2e/	ut
=71	=71	=71	=71	=71	=71	=71	=71	=71	=71
1r	.	1r	.	2c\]	.	2g/]	.	2e/	ne
.	.	.	.	2c\	in-	2g/	in-	2e/	in-
=72	=72	=72	=72	=72	=72	=72	=72	=72	=72
1r	.	1r	.	1F	-tre-	1a	-tre-	1f	-tre-
=73	=73	=73	=73	=73	=73	=73	=73	=73	=73
1r	.	1r	.	1c	-tis	2g/	-tis	1e	-tis
.	.	.	.	.	.	[2g/	in	.	.
=74	=74	=74	=74	=74	=74	=74	=74	=74	=74
1r	.	1r	.	1c	in	2g/]	.	1e	in
.	.	.	.	.	.	[2a/	ten-	.	.
=75	=75	=75	=75	=75	=75	=75	=75	=75	=75
1r	.	1r	.	1d	ten-	2a/]	.	1f	ten-
.	.	.	.	.	.	[2b\	-ta-	.	.
=76	=76	=76	=76	=76	=76	=76	=76	=76	=76
1r	.	1r	.	2e\	-ta-	2b\]	.	1g	-ta-
.	.	.	.	2c\	-ti-	2cc\	-ti-	.	.
=77	=77	=77	=77	=77	=77	=77	=77	=77	=77
1r	.	1r	.	[1d	-o-	[1a	-o-	2f#/	.
.	.	.	.	.	.	.	.	[2g/	-ti-
=78	=78	=78	=78	=78	=78	=78	=78	=78	=78
1r	.	1r	.	1d]	.	1a]	.	2g/]	.
.	.	.	.	.	.	.	.	2f#i/	-o-
=79	=79	=79	=79	=79	=79	=79	=79	=79	=79
1r	.	1r	.	[1G	-nem.	[1b	-nem.	[1g	-nem.
=80	=80	=80	=80	=80	=80	=80	=80	=80	=80
1r	.	1r	.	1G]	.	1b]	.	1g]	.
!!linebreak:original
=81||	=81||	=81||	=81||	=81||	=81||	=81||	=81||	=81||	=81||
!!linebreak:original
1GG	Vel	1G	Vel	1B	Vel	1r	.	1d	Vel
=82	=82	=82	=82	=82	=82	=82	=82	=82	=82
1C	Ju-	1G	Ju-	1c	Ju-	1r	.	1e	Ju-
=83	=83	=83	=83	=83	=83	=83	=83	=83	=83
2C/	-dam	2G/	-dam	2c\	-dam	1r	.	2e/	-dam
[2F\	non	[2A/	non	[2c\	non	.	.	[2f/	non
=84	=84	=84	=84	=84	=84	=84	=84	=84	=84
2F\]	.	2A/]	.	2c\]	.	1r	.	2f/]	.
2D\	vi-	2A/	vi-	2d\	vi-	.	.	2f/	vi-
=85	=85	=85	=85	=85	=85	=85	=85	=85	=85
1F	-de-	1A	-de-	1c	-de-	1r	.	1f	-de-
=86	=86	=86	=86	=86	=86	=86	=86	=86	=86
1C	-tis,	1G	-tis,	1c	-tis,	1r	.	1e	-tis,
=87	=87	=87	=87	=87	=87	=87	=87	=87	=87
2r	.	2r	.	2r	.	1r	.	2r	.
[2AA/	quo-	[2A/	quo-	[2c\	quo-	.	.	[2e/	quo-
=88	=88	=88	=88	=88	=88	=88	=88	=88	=88
2AA/]	.	2A/]	.	2c\]	.	1r	.	2e/]	.
2AA/	-mo-	2A/	-mo-	2c\	-mo-	.	.	2e/	-mo-
=89	=89	=89	=89	=89	=89	=89	=89	=89	=89
2AA/	-do	2A/	-do	2c\	-do	1r	.	2e/	-do
2D\	non	2A/	non	2d\	non	.	.	2f#/	non
=90	=90	=90	=90	=90	=90	=90	=90	=90	=90
1C	dor-	1c	dor-	1e	dor-	1r	.	1g	dor-
=91	=91	=91	=91	=91	=91	=91	=91	=91	=91
[1GG	-mit,	[1B	-mit,	[1d	-mit,	1r	.	[1g	-mit,
=92	=92	=92	=92	=92	=92	=92	=92	=92	=92
1GG]	.	1B]	.	1d]	.	1r	.	1g]	.
=93	=93	=93	=93	=93	=93	=93	=93	=93	=93
!!pagebreak:original
1D	sed	1A	sed	1d	sed	1r	.	1f#	sed
=94	=94	=94	=94	=94	=94	=94	=94	=94	=94
2G\	fe-	2B\	fe-	2d\	fe-	1r	.	2g/	fe-
[2F\	-sti-	[2c\	-sti-	[2f\	-sti-	.	.	[2a/	-sti-
=95	=95	=95	=95	=95	=95	=95	=95	=95	=95
2F\]	.	2c\]	.	2f\]	.	1r	.	2a/]	.
2C/	-nat	2c\	-nat	2e\	-nat	.	.	2g/	-nat
=96	=96	=96	=96	=96	=96	=96	=96	=96	=96
2.F\	tra-	2.c\	tra-	2.f\	tra-	1r	.	2.a/	tra-
4F\	-de-	4c\	-de-	4f\	-de-	.	.	4a/	-de-
=97	=97	=97	=97	=97	=97	=97	=97	=97	=97
2F\	-re	2c\	-re	2f\	-re	1r	.	2g/	-re
[2C/	me	[2c\	me	[2e\	me	.	.	[2g/	me
=98	=98	=98	=98	=98	=98	=98	=98	=98	=98
2C/]	.	2c\]	.	2e\]	.	1r	.	2g/]	.
2E\	Ju-	2G/	Ju-	2c\	Ju-	.	.	2g/	Ju-
=99	=99	=99	=99	=99	=99	=99	=99	=99	=99
[1D	-dae-	[1A	-dae-	[1d	-dae-	1r	.	2f#/	-dae-
.	.	.	.	.	.	.	.	[2g/	.
=100	=100	=100	=100	=100	=100	=100	=100	=100	=100
1D]	.	1A]	.	1d]	.	1r	.	2g/]	.
.	.	.	.	.	.	.	.	2f#/	.
=101	=101	=101	=101	=101	=101	=101	=101	=101	=101
[1GG	-is?	[1B	-is?	[1d	-is?	1r	.	[1g	-is?
=102	=102	=102	=102	=102	=102	=102	=102	=102	=102
1GG]	.	1B]	.	1d]	.	1r	.	1g]	.
==	==	==	==	==	==	==	==	==	==
*-	*-	*-	*-	*-	*-	*-	*-	*-	*-
!!!OTL: Una hora 
!!!COM: Ingegneri, Marc' Antonio
!!!CDT: ca. 1535/36-1592-07-01
!!!TXO: Latin
!!!ODT: 
!!!ARL: Klasztor OO. Paulinów na Jasnej Górze
!!!voices:	5
!!title: @{OTL}, @{GTL}, ed. @{ENC}
!!!pag:
!!!GTL: Responsoria in Hebdomada majore
!!!EFL: 
!!!YEM: Creative Commons CC/BY/NC/SA 4.0
!!!ENC: Marcin Konik
!!!END: 2015-0m-dd
!!!EED: Marcin Konik
!!!EEV: 
!!!ONB: Encoded in vim by Marcin Konik
!!!CharacterEncoding: utf-8
!!!RDF**kern: l=long note in original notation
!!!RDF**kern: i=editorial accidental
!!muse2ps: z14jc180F
